X: 1
T: The Dark Island
C: Iain MacLachlan
R: air, waltz
M: 3/4
L: 1/4
K: G
G \
| "Am"A>EA | "G"G>AG | "C"E>DC | "D"D2G/A/ \
|  "G"B>AG | "G"G<dD | "(C)"B>dB | "D"A2 ||
D/E/ \
| "Am"A>EA | "Em"G>AG | "C"E>DC | "D"D2G/A/ \
| "G"B>D d/B/ | "D"A>D B/A/ | "C"G3 | "G"G2 ||
B/c/ \
| "G"d>DD2 | "G"B>AG  | "C"E<CE | "D"D2G/A/ \
| "G"B>AG | "G"G<dD | "(C)"B>dB | "D"A2 ||
D/E/ \
| "Am"A>EA | "Em"G>AG | "C"E>DC | "D"D2G/A/ \
| "G"B>D d/B/ | "D"A>D B/A/ | "C"G3 | "G"G2 |]
